images/global/icons/experiential/boat.svg

<svg id="Layer_1" data-name="Layer 1" xmlns="http://www.w3.org/2000/svg" viewBox="0 0 276 137"><defs><style>.cls-1,.cls-8{fill:none}.cls-8{stroke:#0e1f2d;stroke-linecap:round;stroke-miterlimit:10;stroke-width:3px}</style><clipPath id="clip-path"><circle class="cls-1" cx="-454" cy="67.27" r="50.5"/></clipPath><clipPath id="clip-path-2"><circle class="cls-1" cx="-454" cy="67.27" r="43.5"/></clipPath><clipPath id="clip-path-3"><circle class="cls-1" cx="-158.52" cy="384.59" r="50.5"/></clipPath><clipPath id="clip-path-4"><circle class="cls-1" cx="-158.52" cy="384.59" r="43.5"/></clipPath><clipPath id="clip-path-5"><circle class="cls-1" cx="138" cy="-87.5" r="50.5"/></clipPath><clipPath id="clip-path-6"><circle class="cls-1" cx="138" cy="-87.5" r="43.5"/></clipPath></defs><path class="cls-8" d="M95.5 77V65.69l91-12.84-8.75 19.06-7.89 4.98m14.25-18.62L96.32 70.72m74.75-16.44l-8.72-15.09-35.49 5.86m8.6-1.53L130 60.91m-23.05-2.85l-1.84 6.11m9.74-6.83L113 63.45m10.48-7.55l-1.84 6.1m31.07-21.36l-5.46 17.4m-20.61-3.45l-24.93 4.12"/><path class="cls-8" d="M87 76.78c2.51 0 2.51 2 5 2s2.51-2 5-2 2.51 2 5 2 2.51-2 5-2 2.51 2 5 2 2.51-2 5-2 2.51 2 5 2 2.51-2 5-2 2.51 2 5 2 2.51-2 5-2 2.51 2 5 2 2.51-2 5-2 2.51 2 5 2 2.51-2 5-2 2.51 2 5 2 2.51-2 5-2 2.51 2 5 2 2.51-2 5-2 2.52 2 5 2 2.52-2 5-2M87 86.72c2.51 0 2.51 2 5 2s2.51-2 5-2 2.51 2 5 2 2.51-2 5-2 2.51 2 5 2 2.51-2 5-2 2.51 2 5 2 2.51-2 5-2 2.51 2 5 2 2.51-2 5-2 2.51 2 5 2 2.51-2 5-2 2.51 2 5 2 2.51-2 5-2 2.51 2 5 2 2.51-2 5-2 2.51 2 5 2 2.51-2 5-2 2.52 2 5 2 2.52-2 5-2M87 97.5c2.51 0 2.51 2 5 2s2.51-2 5-2 2.51 2 5 2 2.51-2 5-2 2.51 2 5 2 2.51-2 5-2 2.51 2 5 2 2.51-2 5-2 2.51 2 5 2 2.51-2 5-2 2.51 2 5 2 2.51-2 5-2 2.51 2 5 2 2.51-2 5-2 2.51 2 5 2 2.51-2 5-2 2.51 2 5 2 2.51-2 5-2 2.52 2 5 2 2.52-2 5-2"/></svg>

<svg id="Layer_1" data-name="Layer 1" xmlns="http://www.w3.org/2000/svg" viewBox="0 0 276 137"><defs><style>.cls-1,.cls-8{fill:none}.cls-2{clip-path:url(#clip-path)}.cls-3{clip-path:url(#clip-path-2)}.cls-4{clip-path:url(#clip-path-3)}.cls-5{clip-path:url(#clip-path-4)}.cls-6{clip-path:url(#clip-path-5)}.cls-7{clip-path:url(#clip-path-6)}.cls-8{stroke:#0e1f2d;stroke-linecap:round;stroke-miterlimit:10;stroke-width:3px}</style><clipPath id="clip-path"><circle class="cls-1" cx="-454" cy="67.27" r="50.5"/></clipPath><clipPath id="clip-path-2"><circle class="cls-1" cx="-454" cy="67.27" r="43.5"/></clipPath><clipPath id="clip-path-3"><circle class="cls-1" cx="-158.52" cy="384.59" r="50.5"/></clipPath><clipPath id="clip-path-4"><circle class="cls-1" cx="-158.52" cy="384.59" r="43.5"/></clipPath><clipPath id="clip-path-5"><circle class="cls-1" cx="138" cy="-87.5" r="50.5"/></clipPath><clipPath id="clip-path-6"><circle class="cls-1" cx="138" cy="-87.5" r="43.5"/></clipPath></defs><title>EXPERIENTIAL ICONS</title><path class="cls-8" d="M95.5 77V65.69l91-12.84-8.75 19.06-7.89 4.98M184.11 58.27L96.32 70.72M171.07 54.28l-8.72-15.09-35.49 5.86M135.46 43.52L130 60.91M106.95 58.06l-1.84 6.11M114.85 57.34L113 63.45M123.48 55.9l-1.84 6.1M152.71 40.64l-5.46 17.4M126.64 54.59l-24.93 4.12"/><path class="cls-8" d="M87 76.78c2.51 0 2.51 2 5 2s2.51-2 5-2 2.51 2 5 2 2.51-2 5-2 2.51 2 5 2 2.51-2 5-2 2.51 2 5 2 2.51-2 5-2 2.51 2 5 2 2.51-2 5-2 2.51 2 5 2 2.51-2 5-2 2.51 2 5 2 2.51-2 5-2 2.51 2 5 2 2.51-2 5-2 2.51 2 5 2 2.51-2 5-2 2.52 2 5 2 2.52-2 5-2M87 86.72c2.51 0 2.51 2 5 2s2.51-2 5-2 2.51 2 5 2 2.51-2 5-2 2.51 2 5 2 2.51-2 5-2 2.51 2 5 2 2.51-2 5-2 2.51 2 5 2 2.51-2 5-2 2.51 2 5 2 2.51-2 5-2 2.51 2 5 2 2.51-2 5-2 2.51 2 5 2 2.51-2 5-2 2.51 2 5 2 2.51-2 5-2 2.52 2 5 2 2.52-2 5-2M87 97.5c2.51 0 2.51 2 5 2s2.51-2 5-2 2.51 2 5 2 2.51-2 5-2 2.51 2 5 2 2.51-2 5-2 2.51 2 5 2 2.51-2 5-2 2.51 2 5 2 2.51-2 5-2 2.51 2 5 2 2.51-2 5-2 2.51 2 5 2 2.51-2 5-2 2.51 2 5 2 2.51-2 5-2 2.51 2 5 2 2.51-2 5-2 2.52 2 5 2 2.52-2 5-2"/></svg>
